Numix-GalliumOS/48/categories/preferences-desktop-peripherals-directory.svg

<?xml version="1.0" encoding="UTF-8" standalone="no"?>
<svg
   xmlns:dc="http://purl.org/dc/elements/1.1/"
   xmlns:cc="http://creativecommons.org/ns#"
   xmlns:rdf="http://www.w3.org/1999/02/22-rdf-syntax-ns#"
   xmlns:svg="http://www.w3.org/2000/svg"
   xmlns="http://www.w3.org/2000/svg"
   xmlns:sodipodi="http://sodipodi.sourceforge.net/DTD/sodipodi-0.dtd"
   xmlns:inkscape="http://www.inkscape.org/namespaces/inkscape"
   width="48"
   height="48"
   viewBox="0 0 38.4 38.4"
   id="svg2"
   version="1.1"
   inkscape:version="0.91 r"
   sodipodi:docname="preferences-desktop-peripherals-directory.svg">
  <metadata
     id="metadata36">
    <rdf:RDF>
      <cc:Work
         rdf:about="">
        <dc:format>image/svg+xml</dc:format>
        <dc:type
           rdf:resource="http://purl.org/dc/dcmitype/StillImage" />
        <dc:title />
      </cc:Work>
    </rdf:RDF>
  </metadata>
  <defs
     id="defs34" />
  <sodipodi:namedview
     pagecolor="#ffffff"
     bordercolor="#666666"
     borderopacity="1"
     objecttolerance="10"
     gridtolerance="10"
     guidetolerance="10"
     inkscape:pageopacity="0"
     inkscape:pageshadow="2"
     inkscape:window-width="1680"
     inkscape:window-height="1026"
     id="namedview32"
     showgrid="true"
     inkscape:zoom="14.052817"
     inkscape:cx="25.993756"
     inkscape:cy="21.100826"
     inkscape:window-x="0"
     inkscape:window-y="24"
     inkscape:window-maximized="1"
     inkscape:current-layer="svg2">
    <inkscape:grid
       type="xygrid"
       id="grid4164" />
  </sodipodi:namedview>
  <path
     style="fill:#555555"
     inkscape:connector-curvature="0"
     id="path6"
     d="M 15.2,7.40901 C 15.2,6.96172 14.840192,6.6 14.396172,6.6 13.955981,6.6 13.6,6.96172 13.6,7.40901 l 0,2.99099 1.6,0 z" />
  <path
     style="fill:#555555"
     inkscape:connector-curvature="0"
     id="path8"
     d="M 13.6,30.987104 C 13.6,31.434391 13.955981,31.8 14.396172,31.8 14.840192,31.8 15.2,31.434391 15.2,30.987104 L 15.2,28 13.6,28 Z" />
  <path
     style="fill:#555555"
     inkscape:connector-curvature="0"
     id="path10"
     d="M 20,7.40901 C 20,6.96172 19.639329,6.6 19.198082,6.6 18.756834,6.6 18.4,6.96172 18.4,7.40901 l 0,2.99099 1.6,0 z" />
  <path
     style="fill:#555555"
     inkscape:connector-curvature="0"
     id="path12"
     d="M 18.4,30.987104 C 18.4,31.434391 18.756834,31.8 19.198082,31.8 19.639329,31.8 20,31.434391 20,30.987104 L 20,28 18.4,28 Z" />
  <path
     style="fill:#555555"
     inkscape:connector-curvature="0"
     id="path14"
     d="M 24.8,7.40901 C 24.8,6.96172 24.443165,6.6 23.998081,6.6 23.556834,6.6 23.2,6.96172 23.2,7.40901 l 0,2.99099 1.6,0 z" />
  <path
     style="fill:#555555"
     inkscape:connector-curvature="0"
     id="path16"
     d="M 23.2,30.987104 C 23.2,31.434391 23.556834,31.8 24.001919,31.8 24.443165,31.8 24.8,31.434391 24.8,30.987104 L 24.8,28 23.2,28 Z" />
  <path
     style="fill:#555555"
     inkscape:connector-curvature="0"
     id="path18"
     d="M 7.4098361,23.2 C 6.9620899,23.2 6.6,23.557692 6.6,24 c 0,0.442308 0.3620899,0.8 0.8098361,0.8 l 2.9901639,0 0,-1.6 z" />
  <path
     style="fill:#555555"
     inkscape:connector-curvature="0"
     id="path20"
     d="M 30.98627,24.8 C 31.43791,24.8 31.8,24.442308 31.8,24 c 0,-0.442308 -0.36209,-0.8 -0.81373,-0.8 L 28,23.2 l 0,1.6 z" />
  <path
     style="fill:#555555"
     inkscape:connector-curvature="0"
     id="path22"
     d="M 7.4098361,18.401953 C 6.9620899,18.401953 6.6,18.758787 6.6,19.200035 c 0,0.441246 0.3620899,0.801918 0.8098361,0.801918 l 2.9901639,0 0,-1.6 z" />
  <path
     style="fill:#555555"
     inkscape:connector-curvature="0"
     id="path24"
     d="m 30.98627,20.001953 c 0.45164,0 0.81373,-0.360672 0.81373,-0.801918 0,-0.441248 -0.36209,-0.798082 -0.81373,-0.798082 l -2.98627,0 0,1.6 z" />
  <path
     style="fill:#555555"
     inkscape:connector-curvature="0"
     id="path26"
     d="M 7.4098361,13.6 C 6.9620899,13.6 6.6,13.956835 6.6,14.398081 6.6,14.839328 6.9620899,15.2 7.4098361,15.2 l 2.9901639,0 0,-1.6 z" />
  <path
     style="fill:#555555"
     inkscape:connector-curvature="0"
     id="path28"
     d="M 30.98627,15.2 C 31.43791,15.2 31.8,14.839328 31.8,14.398081 31.8,13.956835 31.43791,13.6 30.98627,13.6 L 28,13.6 l 0,1.6 z" />
  <path
     style="fill:#555555"
     inkscape:connector-curvature="0"
     id="path30"
     d="M 23.868025,25.6 C 24.821007,25.6 25.6,24.824242 25.6,23.866419 l 0,-9.332839 C 25.6,13.575757 24.821007,12.8 23.868025,12.8 l -9.336051,0 C 13.578993,12.8 12.8,13.575757 12.8,14.53358 l 0,9.332839 C 12.8,24.824242 13.578993,25.6 14.531974,25.6 Z" />
</svg>

<svg xmlns="http://www.w3.org/2000/svg" width="48" height="48" viewBox="0 0 38.4 38.4">
 <path d="m 15.2 7.409 c 0 -0.447 -0.36 -0.809 -0.804 -0.809 -0.44 0 -0.796 0.362 -0.796 0.809 l 0 2.991 1.6 0 z" style="fill:#555"/>
 <path d="m 13.6 30.987 c 0 0.447 0.356 0.813 0.796 0.813 0.444 0 0.804 -0.366 0.804 -0.813 l 0 -2.987 -1.6 0" style="fill:#555"/>
 <path d="m 20 7.409 c 0 -0.447 -0.361 -0.809 -0.802 -0.809 -0.441 0 -0.798 0.362 -0.798 0.809 l 0 2.991 1.6 0 z" style="fill:#555"/>
 <path d="m 18.4 30.987 c 0 0.447 0.357 0.813 0.798 0.813 0.441 0 0.802 -0.366 0.802 -0.813 l 0 -2.987 -1.6 0" style="fill:#555"/>
 <path d="m 24.8 7.409 c 0 -0.447 -0.357 -0.809 -0.802 -0.809 -0.441 0 -0.798 0.362 -0.798 0.809 l 0 2.991 1.6 0 z" style="fill:#555"/>
 <path d="m 23.2 30.987 c 0 0.447 0.357 0.813 0.802 0.813 0.441 0 0.798 -0.366 0.798 -0.813 l 0 -2.987 -1.6 0" style="fill:#555"/>
 <path d="m 7.41 23.2 c -0.448 0 -0.81 0.358 -0.81 0.8 c 0 0.442 0.362 0.8 0.81 0.8 l 2.99 0 0 -1.6 z" style="fill:#555"/>
 <path d="m 30.986 24.8 c 0.452 0 0.814 -0.358 0.814 -0.8 c 0 -0.442 -0.362 -0.8 -0.814 -0.8 l -2.986 0 l 0 1.6 z" style="fill:#555"/>
 <path d="m 7.41 18.402 c -0.448 0 -0.81 0.357 -0.81 0.798 c 0 0.441 0.362 0.802 0.81 0.802 l 2.99 0 0 -1.6 z" style="fill:#555"/>
 <path d="m 30.986 20 c 0.452 0 0.814 -0.361 0.814 -0.802 0 -0.441 -0.362 -0.798 -0.814 -0.798 l -2.986 0 0 1.6 z" style="fill:#555"/>
 <path d="m 7.41 13.6 c -0.448 0 -0.81 0.357 -0.81 0.798 0 0.441 0.362 0.802 0.81 0.802 l 2.99 0 0 -1.6 z" style="fill:#555"/>
 <path d="m 30.986 15.2 c 0.452 0 0.814 -0.361 0.814 -0.802 0 -0.441 -0.362 -0.798 -0.814 -0.798 l -2.986 0 l 0 1.6 z" style="fill:#555"/>
 <path d="m 23.868 25.6 c 0.953 0 1.732 -0.776 1.732 -1.734 l 0 -9.333 c 0 -0.958 -0.779 -1.734 -1.732 -1.734 l -9.336 0 c -0.953 0 -1.732 0.776 -1.732 1.734 l 0 9.333 c 0 0.958 0.779 1.734 1.732 1.734" style="fill:#555"/>
</svg>
